packages/core/src/svgs/tokens/mono/DOMI.svg

<svg width="24" height="24" viewBox="0 0 24 24" fill="none" xmlns="http://www.w3.org/2000/svg">
<path d="M4.35257 7.58809C3.88198 7.3528 3.57022 6.70574 3.47021 6.41162C4.1761 6.88221 5.92316 6.99985 6.70552 6.99985C6.23492 7.23515 5.92316 7.4881 5.82316 7.58809C6.52905 7.3528 7.68786 7.29398 8.17611 7.29398C8.83454 7.27847 9.48886 7.40134 10.0969 7.65466C10.7048 7.90797 11.2529 8.2861 11.7055 8.76457C11.2349 9.47043 11.1173 10.4293 11.1173 10.8233C10.9525 9.64694 9.94085 7.88221 8.17611 7.88221C6.76433 7.88221 5.82316 8.86456 5.52904 9.3528L6.11728 9.05868V14.0587C5.88199 14.0587 5.62904 13.8645 5.52904 13.7646C5.99963 14.941 7.29375 15.5293 8.17611 15.5293C9.16434 15.5293 9.84669 15.1234 10.3114 14.5704C11.1937 13.5116 11.229 12.1116 11.4703 10.8233C11.8937 8.52927 13.4702 7.29398 15.8232 7.29398C18.1761 7.29398 20.235 9.05868 20.235 11.4116C20.235 14.4705 18.7643 16.1175 15.8232 16.1175C14.1761 16.1175 12.8819 15.2351 12.2938 14.3529C12.7643 13.8822 13.0762 12.7822 13.1761 12.294C13.4702 13.1763 14.3526 14.941 15.8232 14.941C17.5879 14.941 18.4703 13.7646 18.4703 10.9764C18.4703 8.74103 16.9996 7.88221 15.8232 7.88221C14.0585 7.88221 12.9996 9.51751 12.7349 10.9764C12.5937 11.741 12.4879 12.6469 12.2938 13.1763C11.1173 16.4117 8.47021 16.1175 6.70552 16.1175C5.29375 16.1175 4.54669 17.2939 4.35257 17.8822V7.58809Z" fill="white"/>
<path d="M6.11728 8.67633V8.17632L5.52904 8.47044C5.23493 8.17632 5.23493 7.88221 5.23493 7.58809L3.47021 6.41162C3.57022 6.70574 3.88198 7.3528 4.35257 7.58809V17.8822C4.54669 17.2939 5.29375 16.1175 6.70552 16.1175H7.11728C8.55257 16.1351 10.3997 16.1587 11.6114 14.488L11.8114 14.1939C11.9526 13.9587 12.082 13.7057 12.1996 13.4234L11.7055 13.1763C11.4114 13.9587 10.4114 15.5881 8.76434 15.8234C7.11728 16.0587 5.92316 15.5293 5.52904 15.2351L5.4114 14.941L5.82316 14.6469H5.23493C4.99963 13.9411 4.99963 13.2352 5.23493 13.4704C5.47022 13.7057 5.72316 13.7646 5.82316 13.7646C5.82316 13.5293 5.42905 13.0764 5.23493 12.8822V10.2352C5.23493 10.2352 4.9408 9.94107 4.9408 9.64694C4.9408 9.17633 5.33493 9.45286 5.52904 9.64694L5.82316 9.20573L5.52904 9.3528C5.6408 9.17044 5.83492 8.91751 6.11728 8.67633Z" fill="white"/>
<path d="M16.07 14.9351C17.67 14.8234 18.47 13.6293 18.47 10.9764C18.47 8.74108 16.9994 7.88226 15.8229 7.88226C15.7229 7.88226 15.623 7.88226 15.5288 7.89992V7.88226C17.5876 7.58814 19.6465 9.05873 19.6465 11.4117C19.6465 14.6469 17.5876 15.5293 16.1171 15.5293L16.07 14.9351Z" fill="white"/>
<path d="M16.1179 16.1116L15.8238 16.1175C14.1767 16.1175 12.8826 15.2351 12.2944 14.3528H13.1767C13.4708 14.7468 14.4709 15.5292 16.1179 15.5292V16.1116Z" fill="white"/>
<path fill-rule="evenodd" clip-rule="evenodd" d="M12 20.8235C14.3401 20.8235 16.5845 19.8938 18.2392 18.2392C19.8938 16.5845 20.8235 14.3401 20.8235 12C20.8235 9.65983 19.8938 7.41554 18.2392 5.76081C16.5845 4.10608 14.3401 3.17647 12 3.17647C9.65983 3.17647 7.41554 4.10608 5.76081 5.76081C4.10608 7.41554 3.17647 9.65983 3.17647 12C3.17647 14.3401 4.10608 16.5845 5.76081 18.2392C7.41554 19.8938 9.65983 20.8235 12 20.8235ZM12 22C14.6522 22 17.1957 20.9464 19.071 19.071C20.9464 17.1957 22 14.6522 22 12C22 9.34785 20.9464 6.80429 19.071 4.92892C17.1957 3.05357 14.6522 2 12 2C9.34785 2 6.80429 3.05357 4.92892 4.92892C3.05357 6.80429 2 9.34785 2 12C2 14.6522 3.05357 17.1957 4.92892 19.071C6.80429 20.9464 9.34785 22 12 22Z" fill="white"/>
</svg>

<svg xmlns="http://www.w3.org/2000/svg" width="24" height="24" fill="none" viewBox="0 0 24 24">
    <path fill="#fff" d="M4.353 7.588c-.471-.235-.783-.882-.883-1.176.706.47 2.453.588 3.236.588-.471.235-.783.488-.883.588.706-.235 1.865-.294 2.353-.294a4.7 4.7 0 0 1 3.53 1.47c-.471.706-.589 1.665-.589 2.06-.165-1.177-1.176-2.942-2.94-2.942-1.413 0-2.354.983-2.648 1.47l.588-.293v5c-.235 0-.488-.194-.588-.294.47 1.176 1.765 1.764 2.647 1.764.988 0 1.67-.406 2.135-.959.883-1.058.918-2.458 1.16-3.747.423-2.294 2-3.529 4.352-3.529s4.412 1.765 4.412 4.118c0 3.058-1.47 4.705-4.412 4.705-1.647 0-2.941-.882-3.53-1.764.471-.47.783-1.57.883-2.059.294.882 1.177 2.647 2.647 2.647 1.765 0 2.647-1.176 2.647-3.965 0-2.235-1.47-3.094-2.647-3.094-1.764 0-2.823 1.636-3.088 3.094-.141.765-.247 1.67-.441 2.2-1.177 3.236-3.824 2.941-5.588 2.941-1.412 0-2.16 1.177-2.353 1.765z"/>
    <path fill="#fff" d="M6.117 8.676v-.5l-.588.294c-.294-.294-.294-.588-.294-.882L3.47 6.412c.1.294.412.94.883 1.176v10.294c.194-.588.94-1.765 2.353-1.765h.411c1.436.018 3.283.042 4.494-1.629l.2-.294c.142-.235.271-.488.389-.77l-.494-.248c-.295.783-1.295 2.412-2.942 2.647-1.647.236-2.84-.294-3.235-.588l-.118-.294.412-.294h-.588C5 13.94 5 13.235 5.235 13.47c.235.236.488.295.588.295 0-.236-.394-.689-.588-.883v-2.647s-.294-.294-.294-.588c0-.47.394-.194.588 0l.294-.441-.294.147c.112-.183.306-.435.588-.677m9.953 6.259c1.6-.112 2.4-1.306 2.4-3.959 0-2.235-1.47-3.094-2.647-3.094-.1 0-.2 0-.294.018v-.018c2.059-.294 4.118 1.177 4.118 3.53 0 3.235-2.06 4.117-3.53 4.117z"/>
    <path fill="#fff" d="m16.118 16.112-.294.006c-1.647 0-2.941-.883-3.53-1.765h.883c.294.394 1.294 1.176 2.94 1.176z"/>
    <path fill="#fff" fill-rule="evenodd" d="M12 20.824a8.824 8.824 0 1 0 0-17.649 8.824 8.824 0 0 0 0 17.649M12 22a10 10 0 1 0 0-20 10 10 0 0 0 0 20" clip-rule="evenodd"/>
</svg>
